!!!COM: Schubert, Franz Peter
!!!CDT: 1797-1828
!!!OTL: Litanei auf das Fest Aller Seelen
!!!OPS: (without opus)
!!!SCT: DV 343
!!!YOR: Franz Schubert: Selected songs
!!!PPE: Max Friedlaender
!!!PSR: C.F. Peters 
!!!PSP: Frankfurt, London, New York
!!!PSD: n.d.
!!!PPG: pp.90-91
!!!ODT: 1816///
**kern
*k[b-e-a-]
*E-:
*M4/4
*MM[Langsam, andaechtig]
*>[introduction,strophe,strophe,strophe]
*>introduction
=-1
1r
*>strophe
=!|:2
4.g
8g
4b-
4f
=3
4b-S
8a-
8f
8d
16.f
!! following rhythm fixed on 2011/03/28 by MP
32e-
4e-
=4
4.g
8g
4g
4g
=5
8.cc
16dd
8ee-
8f#
8Qf#
8g
8g
8.a-
16a-
=6
8g
8e-
8c
16b-
16a-
4g
8f
8r
=7
8.cc
16a-
8.f
16f
8.b-
16g
4ee-
=8
8.an
16an
8.ee-
16ee-
16ee-
16dd
16cc
16b-
16b-
16an
8a-;
=9
4.g
8g
4b-
4f
=10
4gS
8a-
8f
8d
16.f
!! following rhythm fixed 2011/03/28
32e-
4e-
=11
1r
=12
1r
=13
1r
==:|!
*-
!!!EMD:  (5) added section labels and an expansion list
!!!EMD:		(The original encoding had written out the repeated sections.)
!!!EMD: Paul von Hippel (1998/10/21/)
!!!EEV: Version 2.0
